dist/img/sprites/contact-mail.svg

<svg width="21" height="17" viewBox="0 0 21 17" fill="none" xmlns="http://www.w3.org/2000/svg">
<path d="M2.49023 16.5C1.94023 16.5 1.46957 16.3043 1.07823 15.913C0.686901 15.5217 0.490901 15.0507 0.490234 14.5V2.5C0.490234 1.95 0.686234 1.47933 1.07823 1.088C1.47023 0.696666 1.9409 0.500667 2.49023 0.5H18.4902C19.0402 0.5 19.5112 0.696 19.9032 1.088C20.2952 1.48 20.4909 1.95067 20.4902 2.5V14.5C20.4902 15.05 20.2946 15.521 19.9032 15.913C19.5119 16.305 19.0409 16.5007 18.4902 16.5H2.49023ZM10.4902 9.5L2.49023 4.5V14.5H18.4902V4.5L10.4902 9.5ZM10.4902 7.5L18.4902 2.5H2.49023L10.4902 7.5ZM2.49023 4.5V2.5V14.5V4.5Z" fill="currentColor"/>
</svg>

<svg width="21" height="17" viewBox="0 0 21 17" fill="none" xmlns="http://www.w3.org/2000/svg"><path d="M2.49 16.5c-.55 0-1.02-.196-1.412-.587A1.93 1.93 0 01.49 14.5v-12c0-.55.196-1.02.588-1.412A1.93 1.93 0 012.49.5h16c.55 0 1.021.196 1.413.588.392.392.588.863.587 1.412v12c0 .55-.195 1.021-.587 1.413a1.92 1.92 0 01-1.413.587h-16zm8-7l-8-5v10h16v-10l-8 5zm0-2l8-5h-16l8 5zm-8-3v-2 12-10z" fill="currentColor"/></svg>
